X: 30814
T: Otter's Holt, The
R: reel
M: 4/4
K: Bminor
de|:fBc/B/A BAFB|AB/A/FB ABde|fBc/B/A BAFA|B/c/dcA B2de|
fBc/B/A BAFB|AB/A/FB ABde|fbba fafe|1 dBc/B/A B2de:|2 dBc/B/A B2Bc||
|:d2fd adfa|bfaf (3efe dc|d2fd adfa|bfaf egfe|
d2fd adfa|bfaf (3efe de|fBc/B/A BAFA|1 B/c/dcA B2Bc:|2 B/c/dcA B2de||

